X:72
T:Rata de la Plopu
O:rumania
M:6/8
L:1/8
Q:1/4=148
K:G
V:1
"G" g3 d2 e|=f2 ed2 c|B3 A2 G|B2 cd3 |
g3 d2 e|=f2 ed2 c|B2 G"D7" A2 F|"G" G3 z3 :| |:
"G" B3 A2 G|"Am" B2 cd2 c|"G" B3 A2 G|B2 cd3 |
"G" B3 A2 G|"Am" B2 cd2 c|"G" B2 G"D7" A2 F|"G" G3 z3 :|
